X:24
T:The Bride's Reel
C: J. Scott Skinner
R: reel
Q: 1/4=136 for solo
M:2/4
L:1/16
Z: Jason R. Fruit <jason@starlight-glimmer>
K:D
"^up"y{!<(!ABc}!<)!!f![dD]2.A.G "^Springing bow" .F.D.A,.D | .B,.D.A,.D !<(!.C.E.A.!<)!c | {c}d2AF GBed | cAag fddA | "^up"y{c}[dD]2.A.G .F.D.A,.D |
.B,.D.A,.D !<(!.C.E.A!<)!.c | dcdA BGdB | AFGE FD"_[sic]"[DG,] || g | fgaf dAFD | GBed cAag |
fgaf dAFD | GBAc dDDg | fgaf dAFD | GBed cABc | !<(!dfeg fag!<)!b | afge fd[dF]2 |]

